Sweet-Rainbow/icons/ghostwriter.svg

<?xml version="1.0" encoding="UTF-8" standalone="no"?>
<!-- Generator: Gravit.io -->

<svg
   xmlns:dc="http://purl.org/dc/elements/1.1/"
   xmlns:cc="http://creativecommons.org/ns#"
   xmlns:rdf="http://www.w3.org/1999/02/22-rdf-syntax-ns#"
   xmlns:svg="http://www.w3.org/2000/svg"
   xmlns="http://www.w3.org/2000/svg"
   xmlns:sodipodi="http://sodipodi.sourceforge.net/DTD/sodipodi-0.dtd"
   xmlns:inkscape="http://www.inkscape.org/namespaces/inkscape"
   style="isolation:isolate"
   viewBox="0 0 36 36"
   width="48"
   height="48"
   version="1.1"
   id="svg9"
   sodipodi:docname="ghostwriter.svg"
   inkscape:version="0.92.4 (5da689c313, 2019-01-14)">
  <metadata
     id="metadata15">
    <rdf:RDF>
      <cc:Work
         rdf:about="">
        <dc:format>image/svg+xml</dc:format>
        <dc:type
           rdf:resource="http://purl.org/dc/dcmitype/StillImage" />
        <dc:title></dc:title>
      </cc:Work>
    </rdf:RDF>
  </metadata>
  <defs
     id="defs13" />
  <sodipodi:namedview
     pagecolor="#ffffff"
     bordercolor="#666666"
     borderopacity="1"
     objecttolerance="10"
     gridtolerance="10"
     guidetolerance="10"
     inkscape:pageopacity="0"
     inkscape:pageshadow="2"
     inkscape:window-width="640"
     inkscape:window-height="480"
     id="namedview11"
     showgrid="false"
     inkscape:zoom="29.365243"
     inkscape:cx="25.325443"
     inkscape:cy="32"
     inkscape:current-layer="svg9"
     units="px" />
  <linearGradient
     id="_lgradient_21"
     x1="0.061897106"
     y1="0.14716151"
     x2="0.99042481"
     y2="0.98658085"
     gradientTransform="matrix(42.3,0,0,44.833,2.85,1.584)"
     gradientUnits="userSpaceOnUse">
    <stop
       offset="0%"
       stop-opacity="1"
       style="stop-color:rgb(22,181,228)"
       id="stop2" />
    <stop
       offset="98.26086956521739%"
       stop-opacity="1"
       style="stop-color:rgb(245,32,250)"
       id="stop4" />
  </linearGradient>
  <g
     id="g826"
     transform="matrix(0.80299786,0,0,0.80299786,-1.2719486,-1.2719486)">
    <path
       id="path7"
       d="m 7.135,30.964 v 0 c 0.105,1.1 -0.702,2.075 -1.802,2.178 v 0 C 4.233,33.244 3.255,32.434 3.15,31.334 v 0 C 2.95,29.182 2.85,28.165 2.85,26.002 2.86,24.28 2.96,22.558 3.17,20.846 3.411,18.954 3.801,17.092 4.352,15.28 4.802,13.788 5.413,12.356 6.174,11.005 6.584,10.274 7.045,9.583 7.546,8.912 8.026,8.281 8.547,7.671 9.107,7.11 9.658,6.559 10.249,6.039 10.879,5.568 c 0.631,-0.48 1.292,-0.911 1.993,-1.301 1.512,-0.841 3.124,-1.472 4.806,-1.873 2.062,-0.5 4.164,-0.77 6.287,-0.81 0.01,0 0.02,0 0.03,0 h 0.811 c 0.01,0 0.02,0 0.02,0 1.342,0.01 2.663,0.15 3.975,0.4 1.241,0.25 2.463,0.621 3.624,1.131 2.293,1.001 4.325,2.513 5.957,4.406 0.741,0.861 1.402,1.782 1.982,2.753 0.671,1.111 1.242,2.282 1.732,3.484 0.521,1.261 0.952,2.553 1.292,3.864 0.42,1.602 0.761,3.214 1.011,4.846 0.1,0.661 0.19,1.322 0.27,1.973 0.081,0.72 0.151,1.431 0.211,2.152 0.19,2.183 0.27,4.375 0.27,6.558 -0.01,3.033 -0.12,6.057 -0.12,6.057 -0.127,1.663 -0.76,3.538 -1.412,4.185 0,0 -1.381,0.941 -2.903,1.622 -1.182,0.51 -2.463,0.781 -3.755,0.791 -1.291,-0.01 -2.563,-0.281 -3.744,-0.791 -0.711,-0.321 -1.392,-0.691 -2.033,-1.121 -0.71,0.57 -1.471,1.081 -2.272,1.511 -1.222,0.641 -2.563,0.991 -3.945,1.011 -1.361,-0.01 -2.703,-0.37 -3.884,-1.041 -0.741,-0.42 -1.432,-0.921 -2.063,-1.481 -0.561,0.32 -1.151,0.6 -1.752,0.83 -1.151,0.421 -2.363,0.641 -3.584,0.641 -1.252,-0.01 -2.483,-0.22 -3.665,-0.62 C 8.747,44.304 7.536,43.703 6.414,42.972 v 0 C 5.486,42.37 5.221,41.13 5.824,40.204 v 0 c 0.602,-0.925 1.844,-1.188 2.773,-0.586 v 0 c 0.851,0.551 1.762,1.002 2.723,1.332 0.771,0.26 1.572,0.401 2.373,0.411 0.741,0 1.472,-0.131 2.162,-0.391 1.512,-0.571 2.814,-1.572 2.814,-1.572 0.519,-0.724 1.268,-0.594 1.672,0.291 0,0 1.211,1.331 2.723,2.212 0.581,0.321 1.231,0.501 1.892,0.511 0.721,-0.01 1.422,-0.2 2.063,-0.541 1.601,-0.861 2.963,-2.112 2.963,-2.112 0.542,-0.84 1.43,-0.917 1.982,-0.171 0,0 1.322,1.072 2.864,1.752 0.671,0.301 1.401,0.451 2.132,0.461 0.741,-0.01 1.472,-0.16 2.143,-0.461 0.641,-0.28 1.251,-0.63 1.251,-0.63 0.31,-0.232 0.625,-1.436 0.704,-2.687 0.007,-0.117 0.087,-2.489 0.087,-4.872 0,-2.083 -0.08,-4.155 -0.25,-6.228 -0.06,-0.67 -0.13,-1.341 -0.21,-2.012 -0.07,-0.611 -0.15,-1.221 -0.241,-1.832 -0.23,-1.492 -0.54,-2.974 -0.931,-4.435 -0.3,-1.152 -0.67,-2.273 -1.121,-3.374 C 37.982,14.248 37.491,13.267 36.92,12.326 36.46,11.545 35.939,10.814 35.348,10.134 34.107,8.692 32.565,7.551 30.823,6.78 29.922,6.399 28.991,6.109 28.03,5.919 26.969,5.708 25.887,5.598 24.806,5.588 h -0.781 c -1.822,0.04 -3.634,0.271 -5.416,0.701 -1.322,0.31 -2.593,0.811 -3.785,1.472 -0.53,0.3 -1.051,0.641 -1.532,1.001 -0.48,0.36 -0.931,0.751 -1.351,1.181 -0.431,0.431 -0.831,0.891 -1.192,1.382 -0.4,0.521 -0.761,1.071 -1.081,1.642 -0.621,1.101 -1.111,2.263 -1.482,3.474 -0.48,1.592 -0.831,3.234 -1.041,4.896 -0.19,1.552 -0.28,3.104 -0.29,4.665 0,2.043 0.1,2.94 0.28,4.962 z m 7.322,-11.432 c -0.14,-2.579 1.478,-4.767 3.611,-4.882 2.133,-0.116 3.979,1.883 4.119,4.462 0.14,2.579 -1.478,4.767 -3.611,4.883 -2.133,0.116 -3.978,-1.884 -4.119,-4.463 z m 11.356,0 c -0.14,-2.579 1.478,-4.767 3.611,-4.882 2.133,-0.116 3.978,1.883 4.119,4.462 0.14,2.579 -1.478,4.767 -3.611,4.883 -2.133,0.116 -3.979,-1.884 -4.119,-4.463 z m -7.922,9.01 h 12.218 c 1.016,0 1.84,0.764 1.84,1.704 v 0 c 0,0.94 -0.824,1.703 -1.84,1.703 H 17.891 c -1.016,0 -1.84,-0.763 -1.84,-1.703 v 0 c 0,-0.94 0.824,-1.704 1.84,-1.704 z"
       inkscape:connector-curvature="0"
       style="fill:url(#_lgradient_21);fill-rule:evenodd" />
  </g>
</svg>

<?xml version="1.0" encoding="UTF-8" standalone="no"?><!-- Generator: Gravit.io --><svg xmlns="http://www.w3.org/2000/svg" xmlns:xlink="http://www.w3.org/1999/xlink" style="isolation:isolate" viewBox="0 0 48 48" width="48pt" height="48pt"><linearGradient id="_lgradient_21" x1="0.061897106109324806" y1="0.14716151924516707" x2="0.9904248356713994" y2="0.9865808764728623" gradientTransform="matrix(42.3,0,0,44.833,2.85,1.584)" gradientUnits="userSpaceOnUse"><stop offset="0%" stop-opacity="1" style="stop-color:rgb(22,181,228)"/><stop offset="98.26086956521739%" stop-opacity="1" style="stop-color:rgb(245,32,250)"/></linearGradient><path d=" M 7.135 30.964 L 7.135 30.964 C 7.24 32.064 6.433 33.039 5.333 33.142 L 5.333 33.142 C 4.233 33.244 3.255 32.434 3.15 31.334 L 3.15 31.334 C 2.95 29.182 2.85 28.165 2.85 26.002 C 2.86 24.28 2.96 22.558 3.17 20.846 C 3.411 18.954 3.801 17.092 4.352 15.28 C 4.802 13.788 5.413 12.356 6.174 11.005 C 6.584 10.274 7.045 9.583 7.546 8.912 C 8.026 8.281 8.547 7.671 9.107 7.11 C 9.658 6.559 10.249 6.039 10.879 5.568 C 11.51 5.088 12.171 4.657 12.872 4.267 C 14.384 3.426 15.996 2.795 17.678 2.394 C 19.74 1.894 21.842 1.624 23.965 1.584 C 23.975 1.584 23.985 1.584 23.995 1.584 L 24.806 1.584 C 24.816 1.584 24.826 1.584 24.826 1.584 C 26.168 1.594 27.489 1.734 28.801 1.984 C 30.042 2.234 31.264 2.605 32.425 3.115 C 34.718 4.116 36.75 5.628 38.382 7.521 C 39.123 8.382 39.784 9.303 40.364 10.274 C 41.035 11.385 41.606 12.556 42.096 13.758 C 42.617 15.019 43.048 16.311 43.388 17.622 C 43.808 19.224 44.149 20.836 44.399 22.468 C 44.499 23.129 44.589 23.79 44.669 24.441 C 44.75 25.161 44.82 25.872 44.88 26.593 C 45.07 28.776 45.15 30.968 45.15 33.151 C 45.14 36.184 45.03 39.208 45.03 39.208 C 44.903 40.871 44.27 42.746 43.618 43.393 C 43.618 43.393 42.237 44.334 40.715 45.015 C 39.533 45.525 38.252 45.796 36.96 45.806 C 35.669 45.796 34.397 45.525 33.216 45.015 C 32.505 44.694 31.824 44.324 31.183 43.894 C 30.473 44.464 29.712 44.975 28.911 45.405 C 27.689 46.046 26.348 46.396 24.966 46.416 C 23.605 46.406 22.263 46.046 21.082 45.375 C 20.341 44.955 19.65 44.454 19.019 43.894 C 18.458 44.214 17.868 44.494 17.267 44.724 C 16.116 45.145 14.904 45.365 13.683 45.365 C 12.431 45.355 11.2 45.145 10.018 44.745 C 8.747 44.304 7.536 43.703 6.414 42.972 L 6.414 42.972 C 5.486 42.37 5.221 41.13 5.824 40.204 L 5.824 40.204 C 6.426 39.279 7.668 39.016 8.597 39.618 L 8.597 39.618 C 9.448 40.169 10.359 40.62 11.32 40.95 C 12.091 41.21 12.892 41.351 13.693 41.361 C 14.434 41.361 15.165 41.23 15.855 40.97 C 17.367 40.399 18.669 39.398 18.669 39.398 C 19.188 38.674 19.937 38.804 20.341 39.689 C 20.341 39.689 21.552 41.02 23.064 41.901 C 23.645 42.222 24.295 42.402 24.956 42.412 C 25.677 42.402 26.378 42.212 27.019 41.871 C 28.62 41.01 29.982 39.759 29.982 39.759 C 30.524 38.919 31.412 38.842 31.964 39.588 C 31.964 39.588 33.286 40.66 34.828 41.34 C 35.499 41.641 36.229 41.791 36.96 41.801 C 37.701 41.791 38.432 41.641 39.103 41.34 C 39.744 41.06 40.354 40.71 40.354 40.71 C 40.664 40.478 40.979 39.274 41.058 38.023 C 41.065 37.906 41.145 35.534 41.145 33.151 C 41.145 31.068 41.065 28.996 40.895 26.923 C 40.835 26.253 40.765 25.582 40.685 24.911 C 40.615 24.3 40.535 23.69 40.444 23.079 C 40.214 21.587 39.904 20.105 39.513 18.644 C 39.213 17.492 38.843 16.371 38.392 15.27 C 37.982 14.248 37.491 13.267 36.92 12.326 C 36.46 11.545 35.939 10.814 35.348 10.134 C 34.107 8.692 32.565 7.551 30.823 6.78 C 29.922 6.399 28.991 6.109 28.03 5.919 C 26.969 5.708 25.887 5.598 24.806 5.588 L 24.025 5.588 C 22.203 5.628 20.391 5.859 18.609 6.289 C 17.287 6.599 16.016 7.1 14.824 7.761 C 14.294 8.061 13.773 8.402 13.292 8.762 C 12.812 9.122 12.361 9.513 11.941 9.943 C 11.51 10.374 11.11 10.834 10.749 11.325 C 10.349 11.846 9.988 12.396 9.668 12.967 C 9.047 14.068 8.557 15.23 8.186 16.441 C 7.706 18.033 7.355 19.675 7.145 21.337 C 6.955 22.889 6.865 24.441 6.855 26.002 C 6.855 28.045 6.955 28.942 7.135 30.964 L 7.135 30.964 L 7.135 30.964 Z  M 14.457 19.532 C 14.317 16.953 15.935 14.765 18.068 14.65 C 20.201 14.534 22.047 16.533 22.187 19.112 C 22.327 21.691 20.709 23.879 18.576 23.995 C 16.443 24.111 14.598 22.111 14.457 19.532 L 14.457 19.532 L 14.457 19.532 Z  M 25.813 19.532 C 25.673 16.953 27.291 14.765 29.424 14.65 C 31.557 14.534 33.402 16.533 33.543 19.112 C 33.683 21.691 32.065 23.879 29.932 23.995 C 27.799 24.111 25.953 22.111 25.813 19.532 L 25.813 19.532 Z  M 17.891 28.542 L 30.109 28.542 C 31.125 28.542 31.949 29.306 31.949 30.246 L 31.949 30.246 C 31.949 31.186 31.125 31.949 30.109 31.949 L 17.891 31.949 C 16.875 31.949 16.051 31.186 16.051 30.246 L 16.051 30.246 C 16.051 29.306 16.875 28.542 17.891 28.542 Z " fill-rule="evenodd" fill="url(#_lgradient_21)"/></svg>
